src/assets/icon-confetti.svg

<svg xmlns="http://www.w3.org/2000/svg" width="36" height="36" viewBox="0 0 36 36">
  <g fill="none">
    <path stroke="currentColor" stroke-width="2" d="M14.7644043,13.7341309 C11.0128564,20.8343416 9.03808425,24.6804924 8.84008789,25.272583 C8.54309335,26.160719 8.8104248,27.4680176 10.3369141,27.4680176 C11.3545736,27.4680176 15.3642578,25.6681722 22.3659668,22.0684814" />
    <ellipse cx="19.208" cy="17.421" stroke="#0057FF" stroke-width="2" rx="2.5" ry="6" transform="rotate(-45 19.208 17.42)" />
    <path stroke="currentColor" stroke-linecap="round" stroke-width="2" d="M17.1473802,16.2741926 C16.0428107,16.2741926 15.1473802,18.2889113 15.1473802,20.7741926 C15.1473802,23.259474 16.0428107,25.2741926 17.1473802,25.2741926" transform="rotate(-45 16.147 20.774)" />
    <path stroke="currentColor" stroke-linecap="round" stroke-opacity=".5" stroke-width="1.5" d="M19.4544678 16.1330566C19.4259847 15.7307129 19.5624593 15.3996989 19.8638916 15.1400146 20.31604 14.7504883 21.7958984 14.399292 21.7958984 13.520752 21.7958984 12.6422119 20.0614757 12.2501221 20.3424072 11.012085 20.5296949 10.1867269 21.1754876 9.59228516 22.2797852 9.22875977 22.883138 8.81941732 23.0339762 8.36767578 22.7322998 7.87353516M20.7855225 18C23.2911377 16.9345703 25.1219482 16.7860921 26.2779541 17.5545654" />
    <circle cx="25.25" cy="13.25" r="1" fill="#0057FF" opacity=".5" />
    <circle cx="28.25" cy="16.25" r="1" fill="#0057FF" opacity=".5" />
    <circle cx="25.25" cy="5.25" r="1" fill="#0057FF" opacity=".5" />
    <circle cx="20.25" cy="6.25" r="1" fill="#0057FF" opacity=".5" />
    <circle cx="26.25" cy="9.25" r="1" fill="#0057FF" opacity=".5" />
    <circle cx="18.25" cy="8.25" r="1" fill="#0057FF" opacity=".5" />
    <circle cx="12.25" cy="13.25" r="1" fill="#0057FF" opacity=".5" />
    <path stroke="currentColor" stroke-linecap="round" stroke-opacity=".5" stroke-width="1.5" d="M16.6651611,10.1651611 C16.3667111,9.06580008 16.0968544,8.3440797 15.8555908,8 C15.4936955,7.48388045 15.3170558,7.25 14.6210937,7.25 C13.9251317,7.25 13.5513339,7.4705854 13.1976328,8 C12.8439316,8.5294146 13.0947197,9.06546027 13.1976328,9.38061523 C13.2662415,9.59071855 13.4692441,9.75217688 13.8066406,9.86499023" />
  </g>
</svg>

<svg viewBox="0 0 36 36" xmlns="http://www.w3.org/2000/svg">
<g fill="none">
<path d="m14.764 13.734c-3.7515 7.1002-5.7263 10.946-5.9243 11.538-0.29699 0.88814-0.029663 2.1954 1.4968 2.1954 1.0177 0 5.0273-1.7998 12.029-5.3995" stroke="currentColor" stroke-width="2"/>
<ellipse transform="rotate(-45 19.208 17.42)" cx="19.208" cy="17.421" rx="2.5" ry="6" stroke="#0057FF" stroke-width="2"/>
<path transform="rotate(-45 16.147 20.774)" d="m17.147 16.274c-1.1046 0-2 2.0147-2 4.5 0 2.4853 0.89543 4.5 2 4.5" stroke="currentColor" stroke-linecap="round" stroke-width="2"/>
<path d="m19.454 16.133c-0.028483-0.40234 0.10799-0.73336 0.40942-0.99304 0.45215-0.38953 1.932-0.74072 1.932-1.6193 0-0.87854-1.7344-1.2706-1.4535-2.5087 0.18729-0.82536 0.83308-1.4198 1.9374-1.7833 0.60335-0.40934 0.75419-0.86108 0.45251-1.3552m-1.9468 10.126c2.5056-1.0654 4.3364-1.2139 5.4924-0.44543" stroke="currentColor" stroke-linecap="round" stroke-opacity=".5" stroke-width="1.5"/>
<circle cx="25.25" cy="13.25" r="1" fill="#0057FF" opacity=".5"/>
<circle cx="28.25" cy="16.25" r="1" fill="#0057FF" opacity=".5"/>
<circle cx="25.25" cy="5.25" r="1" fill="#0057FF" opacity=".5"/>
<circle cx="20.25" cy="6.25" r="1" fill="#0057FF" opacity=".5"/>
<circle cx="26.25" cy="9.25" r="1" fill="#0057FF" opacity=".5"/>
<circle cx="18.25" cy="8.25" r="1" fill="#0057FF" opacity=".5"/>
<circle cx="12.25" cy="13.25" r="1" fill="#0057FF" opacity=".5"/>
<path d="m16.665 10.165c-0.29845-1.0994-0.56831-1.8211-0.80957-2.1652-0.3619-0.51612-0.53854-0.75-1.2345-0.75-0.69596 0-1.0698 0.22059-1.4235 0.75-0.3537 0.52941-0.10291 1.0655 0 1.3806 0.068609 0.2101 0.27161 0.37156 0.60901 0.48438" stroke="currentColor" stroke-linecap="round" stroke-opacity=".5" stroke-width="1.5"/>
</g>
</svg>
